X: 39
T:Mr Shearer of Buchromb's Strathspey
B:William Marshall's Scottish Airs, Melodies, Strathspeys, Reels &c (1822)
C:William Marshall
L:1/8
M:C
O:Scotland
R:Strathspey
Z:Clark Bernst + Richard Robinson
%%Page:29 - 2
F:http://richardrobinson.tunebook.org.uk/tune/3882
%%TBL:{"version":1,"type":"tune","id":"3882"}
K:F minor
%%staves {1 2}
V:1
CF FE/F/ {EF}.G.F.F.G | B>c B<G E2 EG/E/ | \
CF FE/F/ {EF}.G.F.F.G | {G}e>cBG {=E}F2 F2 :|
!=!~f>g f<c {c}a>g f<=d | (e>f)!trill!g(f/g/) {d}e2 (eg) | \
!=!~f>g f<c {c}agf=d | e<cB<G {=E}F2 F2 |
!=!~f>g f<c {c}a>g f<=d | (e.f) !trill!g(f/g/) {d}e2 (eg) | \
afg=e fc{c}a>f | e>cB>G {=E}F2 F2 |]
V:2 middle=d clef=bass
L:1/4
FFFF | EEEE | FFFF | ccFF :| \
ffff | eeee | ffff | ccfF | ffff | eeee | fgab | c'cfF |]

